dist/imgs/spotify-logo.svg

<svg width="21" height="21" viewBox="0 0 21 21" fill="none" xmlns="http://www.w3.org/2000/svg">
<g clip-path="url(#clip0_10_1036)">
<path d="M10.4998 0.5C4.97673 0.5 0.499756 4.97697 0.499756 10.5C0.499756 16.023 4.97673 20.5 10.4998 20.5C16.0228 20.5 20.4998 16.023 20.4998 10.5C20.4998 4.97765 16.0228 0.500682 10.4998 0.5ZM15.0859 14.9224C14.9064 15.2172 14.5223 15.3093 14.2289 15.1298C11.8809 13.6948 8.92487 13.3707 5.44414 14.1656C5.10842 14.2427 4.77407 14.0326 4.69764 13.6969C4.62053 13.3611 4.83002 13.0268 5.16642 12.9504C8.97536 12.0803 12.2432 12.455 14.8791 14.0653C15.1726 14.2462 15.266 14.629 15.0859 14.9224ZM16.3094 12.2004C16.0835 12.5676 15.6031 12.6822 15.2367 12.457C12.5496 10.805 8.45131 10.3267 5.27219 11.2915C4.86004 11.4164 4.4247 11.1837 4.29914 10.7723C4.17495 10.3601 4.40764 9.92545 4.8191 9.7999C8.45063 8.69788 12.9658 9.23149 16.0521 11.1285C16.4192 11.3543 16.5352 11.834 16.3094 12.2004ZM16.4145 9.36455C13.191 7.45053 7.87403 7.27448 4.79658 8.20795C4.30255 8.35807 3.77986 8.07898 3.63043 7.58495C3.48099 7.09092 3.75939 6.56824 4.25411 6.41812C7.78669 5.34613 13.6584 5.55288 17.3691 7.75554C17.8133 8.01962 17.9593 8.59348 17.6959 9.03702C17.4332 9.48192 16.858 9.62862 16.4145 9.36455Z" fill="#2EBD59"/>
</g>
<defs>
<clipPath id="clip0_10_1036">
<rect width="20" height="20" fill="white" transform="translate(0.499756 0.5)"/>
</clipPath>
</defs>
</svg>

<svg width="21" height="21" fill="none" xmlns="http://www.w3.org/2000/svg"><g clip-path="url(#clip0_10_1036)"><path d="M10.5.5C4.977.5.5 4.977.5 10.5s4.477 10 10 10 10-4.477 10-10c0-5.522-4.477-10-10-10zm4.586 14.422a.623.623 0 01-.857.208c-2.348-1.435-5.304-1.76-8.785-.964a.623.623 0 11-.278-1.216c3.81-.87 7.077-.495 9.713 1.115a.623.623 0 01.207.857zm1.223-2.722a.78.78 0 01-1.072.257c-2.687-1.652-6.786-2.13-9.965-1.166a.78.78 0 01-.973-.519.781.781 0 01.52-.972c3.632-1.102 8.147-.569 11.233 1.329a.779.779 0 01.257 1.071zm.105-2.835c-3.223-1.914-8.54-2.09-11.617-1.157a.935.935 0 11-.543-1.79c3.533-1.072 9.404-.865 13.115 1.338a.935.935 0 01-.954 1.609z" fill="#2EBD59"/></g><defs><clipPath id="clip0_10_1036"><path fill="#fff" transform="translate(.5 .5)" d="M0 0h20v20H0z"/></clipPath></defs></svg>
